X: 183
T: Ships Are Sailing
R: reel
M: 4/4
L: 1/8
K: Edor
d|Beed BcdB | AD (3FED AD (3FED | ~E3F GFGA | Bdef gfed |
Beed BcdB | AD (3FED AD (3FED | ~E3F GFGA | Bded e3z :||
~g3a bgeg | ~f3g afdf | gfga bgeg | fedf e2 ef |
gfga bgeg | fefg afdf | g2bg f2af | edef gfef :||

